!!!COM: Music21
!!!OTL: reel_Crisis--The
!!!OMV: reel_Crisis--The
**kern
*clefG2
*k[b-e-]
*g:
*M4/4
=1
8b-L
8gJ
16gLL
16gJ
8gJ
8dL
8gJ
8b-L
8gJ
=
8e-L
8gJ
8b-L
8gJ
8fL
8aJ
8ccL
8aJ
=
8b-L
8aJ
8gL
8f#XJ
8gL
8aJ
8b-L
8ccJ
=
8ddL
8dJ
16dLL
16dJ
8dJ
[8ddL
8dJ 8dd]
8ccL
8dJ
=
8b-L
8gJ
8b-L
8ddJ
4cc
4een
!!linebreak:original
=
4.dd
8ff
8eenL
8ffJ
8ggL
8aaJ
=
8bb-L
[8ggJ
4gg]
[8ggL
8ddJ 8gg]
8ee-L
8ccJ
=
8ddL
8dJ
16dLL
16dJ
8dJ
8ddL
8ccJ
8b-L
8aJ
=||
*M4/4
8b-L
8gJ
16gLL
16gJ
8gJ
8dL
8gJ
8b-L
8gJ
=
8e-L
8gJ
8b-L
8gJ
8fL
8aJ
8ccL
8aJ
!!linebreak:original
=
8b-L
8aJ
8gL
8f#XJ
8gL
8aJ
8b-L
8ccJ
=
8ddL
8dJ
16dLL
16dJ
8dJ
[8ddL
8dJ 8dd]
8ccL
8dJ
=
8b-L
8gJ
8b-L
8ddJ
4cc
4een
=
4.dd
8ff
8eenL
8ffJ
8ggL
8aaJ
=
8bb-L
[8ggJ
4gg]
[8ggL
8ddJ 8gg]
8ee-L
8ccJ
!!linebreak:original
=
8ddL
8b-J
8aL
8b-J
8gL
8aJ
8b-L
8ccJ
=
4dd
4gg
8ffL
8ggJ
8aaL
8ffJ
=
4gg
4dd
8ccL
8ddJ
8ee-L
8ccJ
=
4dd
4b-
8aL
8b-J
8ccL
8aJ
=
8b-L
8aJ
8gL
8b-J
8aL
8fJ
8dL
8fJ
=
8e-L
8gJ
8b-L
8gJ
4f
4cc
!!linebreak:original
=
8b-L
8ddJ
8ffL
8ggJ
4een
4cc#X
=
8aaL
8ggJ
8ff#XL
8ggJ
8aaL
8ggJ
8ffnL
8ee-J
=
4dd
8ddL
8ee-J
8ddL
8ccJ
8b-L
8ccJ
=
4dd
4gg
8ffL
8ggJ
8aaL
8ffJ
=
4gg
4dd
8ccL
8ddJ
8ee-L
8ccJ
!!linebreak:original
=
8ddL
8ccJ
8b-L
8ddJ
8ccL
8b-J
8aL
8ccJ
=
8b-L
8aJ
8gL
8b-J
8aL
8fJ
8dL
8fJ
=
8e-L
8gJ
8b-L
8gJ
8fL
8aJ
8ccL
8aJ
=
8gL
8b-J
8ddL
8b-J
8ccL
8ddJ
8ee-L
8ccJ
=
4dd
4gg
8ffL
8ggJ
8aaL
8ffJ
=
4.gg
[8gg
2gg]
=
*-
